images/icons/white-logo-6.svg

<svg width="80" height="18" viewBox="0 0 80 18" fill="none" xmlns="http://www.w3.org/2000/svg">
<path d="M19.628 4.8377H22.3382L20.8202 11.9254C20.5414 13.2678 20.0096 14.0361 19.2034 14.5806C18.388 15.0464 17.4516 15.2666 16.5103 15.2138C14.7178 15.2138 12.9981 14.4751 12.8266 12.681H15.554C15.6398 13.1032 16.0343 13.3438 16.6347 13.3438C17.4452 13.3438 17.8183 12.8625 17.9855 12.1069L18.1485 11.3259H18.0884C17.8491 11.5849 17.5588 11.7933 17.2352 11.9384C16.9116 12.0835 16.5614 12.1624 16.2058 12.1702C14.6277 12.1702 13.3755 10.9334 13.4012 9.12237C13.4356 7.01169 14.8335 4.61396 17.1793 4.61396C17.6239 4.58448 18.0676 4.68092 18.4583 4.89188C18.8489 5.10279 19.17 5.41946 19.3835 5.80439H19.4307L19.628 4.8377ZM17.2994 10.1904C18.3415 10.1904 18.9204 9.00843 18.9375 7.99107C18.9375 7.31144 18.6674 6.61488 17.8698 6.61488C16.7805 6.61488 16.2273 7.80954 16.2101 8.83532C16.2101 9.52764 16.4803 10.1904 17.2779 10.1904M47.7258 10.4184C47.7258 10.87 47.3308 11.0516 46.8119 11.0516C45.9543 11.0516 45.6671 10.6294 45.6628 10.0384H42.9654C42.9183 12.242 44.9167 12.7865 46.6922 12.7865C48.9605 12.7865 50.4316 11.8199 50.4618 9.8907C50.4618 8.34986 49.1278 7.88132 47.8158 7.58157C46.8078 7.35365 46.3662 7.18899 46.3703 6.81329C46.3749 6.43758 46.8252 6.28562 47.2668 6.28562C47.8199 6.28562 48.1971 6.47979 48.2359 6.97794H50.8563C50.8261 5.1374 49.1406 4.59708 47.4254 4.59708C45.3412 4.59708 43.7159 5.52998 43.6901 7.29452C43.6901 8.68335 44.6422 9.19415 46.0787 9.55721C47.0007 9.79782 47.734 9.87378 47.7258 10.4184ZM67.7651 5.98169H67.718C67.6014 5.56598 67.3436 5.20206 66.9879 4.9502C66.6323 4.69838 66.1998 4.57377 65.7623 4.59708C64.5962 4.59708 63.8844 5.16696 63.211 6.02813H63.1639L63.4126 4.8377H60.6848L59.051 12.5291H61.9031L62.7607 8.37942C62.9578 7.47605 63.4254 6.84285 64.1331 6.84285C64.8407 6.84285 64.9349 7.40004 64.7891 8.07972L63.8455 12.5291H66.6972L67.5552 8.37942C67.7523 7.41696 68.2199 6.84285 68.9271 6.84285C69.6348 6.84285 69.7294 7.37052 69.5836 8.07972L68.64 12.5291H71.4917L72.5125 7.95728C72.9413 6.02813 72.2853 4.58016 70.4028 4.58016C69.8789 4.57805 69.3632 4.70522 68.9024 4.95006C68.4416 5.19491 68.0508 5.5496 67.7651 5.98169ZM0.523193 12.5291H3.46932L5.74646 1.74341H2.80462L0.523193 12.5291ZM9.39158 4.60973C11.3814 4.60973 13.2812 5.68194 13.2511 8.10924C13.2254 10.7645 11.39 12.7528 8.58536 12.7528C6.65558 12.7528 4.72584 11.6975 4.76013 9.2828C4.8073 6.69089 6.617 4.60973 9.39158 4.60973ZM8.66687 10.87C9.92337 10.87 10.3822 9.07593 10.3822 8.02059C10.3822 7.265 10.1464 6.52623 9.31866 6.52623C8.07505 6.52623 7.6505 8.42586 7.6505 9.40524C7.6505 10.1904 7.8735 10.87 8.68401 10.87M6.72849 1.74341L6.29965 3.90054H31.0394L31.4682 1.74341H6.72849ZM26.6266 4.60973C28.6164 4.60973 30.5162 5.68194 30.4862 8.10924C30.4605 10.7645 28.6207 12.7528 25.8161 12.7528C23.8863 12.7528 21.9566 11.6975 21.9952 9.2828C22.0552 6.69089 23.8649 4.60973 26.6266 4.60973ZM25.9148 10.87C27.1713 10.87 27.6301 9.07593 27.6301 8.02059C27.6301 7.265 27.39 6.52623 26.5623 6.52623C25.323 6.52623 24.8941 8.42586 24.8941 9.40524C24.8941 10.1904 25.1171 10.87 25.9319 10.87M32.4803 1.74341L32.0515 3.90054H34.899L35.3278 1.74341H32.4803ZM30.1989 12.5291H33.0506L34.6845 4.8377H31.8156L30.1989 12.5291ZM39.2988 12.7865C38.845 12.8183 38.3911 12.7249 37.9881 12.5169C37.5851 12.3088 37.249 11.9944 37.0174 11.6088H36.9702L36.1126 15.5009H33.2265L35.5422 4.8377H38.2525L38.0381 5.86347C38.3211 5.48457 38.6877 5.17376 39.1103 4.95438C39.533 4.73505 40.0006 4.61288 40.4782 4.59708C42.1935 4.59708 43.2013 6.045 43.1713 7.92776C43.1327 10.2959 41.8847 12.7865 39.2817 12.7865H39.2988ZM39.1873 6.77531C38.0852 6.77531 37.4077 8.16414 37.3905 9.23217C37.3905 9.97512 37.6564 10.8025 38.5612 10.8025C39.7406 10.8025 40.2251 9.26592 40.238 8.2401C40.238 7.54359 40.0322 6.77531 39.1873 6.77531ZM55.6764 11.3175H55.7235L55.4748 12.5375H58.1847L59.819 4.84611H56.9715L56.0622 9.14348C55.878 10.0342 55.3203 10.5028 54.6172 10.5028C53.9136 10.5028 53.7591 9.85268 53.9008 9.17304L54.8229 4.84611H51.9754L50.9674 9.59519C50.5386 11.6637 51.5164 12.7781 53.1548 12.7781C53.6691 12.7732 54.1733 12.6348 54.6158 12.3769C55.0583 12.1189 55.4245 11.7506 55.6764 11.3091V11.3175ZM70.9728 15.5389L71.4016 13.3818H37.5835L37.1546 15.5389H70.9728Z" fill="white"/>
<path d="M74.0388 6.94837C74.0109 6.94625 73.9835 6.93865 73.9583 6.926C73.9327 6.9134 73.9104 6.89599 73.8921 6.87479C73.8738 6.8536 73.8601 6.82907 73.8514 6.80257C73.8427 6.77606 73.8395 6.74816 73.8418 6.7204C73.8774 6.34447 73.8322 5.9653 73.7088 5.60782C73.5853 5.25034 73.3865 4.92251 73.125 4.64594C72.8639 4.36935 72.5462 4.15019 72.1933 4.00282C71.8399 3.85545 71.4591 3.78319 71.0756 3.79078C71.0189 3.79078 70.9645 3.76854 70.9243 3.72895C70.8841 3.68937 70.8612 3.63568 70.8612 3.5797C70.8612 3.52372 70.8841 3.47004 70.9243 3.43046C70.9645 3.39087 71.0189 3.36863 71.0756 3.36863C71.1785 3.37518 71.2818 3.37518 71.3846 3.36863C72.1462 3.28876 72.8557 2.95 73.391 2.41066C73.9268 1.87132 74.2541 1.16514 74.3177 0.413663C74.3222 0.360661 74.3465 0.311221 74.3862 0.27522C74.426 0.239219 74.4781 0.219313 74.5321 0.219484C74.5604 0.221614 74.5878 0.229214 74.613 0.241841C74.6381 0.254469 74.6605 0.271876 74.6788 0.293063C74.6975 0.314249 74.7113 0.338795 74.7199 0.365289C74.7286 0.391784 74.7318 0.4197 74.7295 0.447436C74.6939 0.823034 74.7391 1.20182 74.8621 1.55902C74.9855 1.91622 75.1839 2.24379 75.4445 2.52031C75.7055 2.79683 76.0224 3.01608 76.3748 3.16372C76.7277 3.31136 77.1081 3.38407 77.4911 3.37708C77.5478 3.37708 77.6027 3.39932 77.6429 3.4389C77.6831 3.47848 77.7055 3.53217 77.7055 3.58815C77.7055 3.64413 77.6831 3.69782 77.6429 3.7374C77.6027 3.77698 77.5478 3.79922 77.4911 3.79922C76.6765 3.81247 75.8953 4.12141 75.2978 4.66678C74.7003 5.21213 74.3282 5.95549 74.2537 6.75419C74.2491 6.8072 74.2249 6.85666 74.1851 6.89266C74.1453 6.92866 74.0932 6.94855 74.0388 6.94837Z" fill="white"/>
</svg>

<svg width="80" height="18" fill="none" xmlns="http://www.w3.org/2000/svg"><path d="M19.628 4.838h2.71l-1.518 7.087c-.279 1.343-.81 2.111-1.617 2.656a4.88 4.88 0 0 1-2.693.633c-1.792 0-3.512-.739-3.683-2.533h2.727c.086.422.48.663 1.08.663.811 0 1.184-.481 1.351-1.237l.163-.781h-.06a2.659 2.659 0 0 1-1.883.844c-1.577 0-2.83-1.237-2.804-3.048.035-2.11 1.433-4.508 3.778-4.508.445-.03.889.067 1.28.278.39.21.711.527.925.912h.047l.197-.966Zm-2.329 5.352c1.043 0 1.621-1.182 1.639-2.199 0-.68-.27-1.376-1.068-1.376-1.09 0-1.643 1.195-1.66 2.22 0 .693.27 1.355 1.068 1.355m30.448.228c0 .452-.395.634-.914.634-.858 0-1.145-.423-1.15-1.014h-2.697c-.047 2.204 1.952 2.748 3.727 2.748 2.269 0 3.74-.966 3.77-2.895 0-1.541-1.334-2.01-2.646-2.31-1.008-.227-1.45-.392-1.446-.768.005-.375.455-.527.897-.527.553 0 .93.194.969.692h2.62c-.03-1.84-1.715-2.38-3.43-2.38-2.085 0-3.71.932-3.736 2.697 0 1.388.952 1.9 2.389 2.262.922.24 1.655.317 1.647.861Zm20.04-4.436h-.048a1.891 1.891 0 0 0-.73-1.032 1.943 1.943 0 0 0-1.226-.353c-1.166 0-1.878.57-2.551 1.431h-.047l.249-1.19h-2.728l-1.634 7.691h2.852l.858-4.15c.197-.903.664-1.536 1.372-1.536.708 0 .802.557.656 1.237l-.944 4.45h2.852l.858-4.15c.197-.963.665-1.537 1.372-1.537.708 0 .802.528.657 1.237l-.944 4.45h2.852l1.02-4.573c.43-1.929-.227-3.377-2.11-3.377a3.17 3.17 0 0 0-1.5.37c-.46.245-.851.6-1.137 1.032ZM.522 12.529H3.47L5.746 1.743H2.805L.523 12.53Zm8.869-7.92c1.99 0 3.89 1.073 3.86 3.5-.027 2.655-1.862 4.644-4.667 4.644-1.93 0-3.86-1.056-3.825-3.47C4.807 6.69 6.617 4.61 9.392 4.61Zm-.725 6.261c1.256 0 1.715-1.794 1.715-2.85 0-.755-.236-1.494-1.063-1.494-1.244 0-1.669 1.9-1.669 2.88 0 .784.223 1.464 1.034 1.464M6.728 1.743 6.3 3.901h24.74l.428-2.158H6.728ZM26.627 4.61c1.99 0 3.89 1.072 3.86 3.5-.026 2.655-1.866 4.643-4.67 4.643-1.93 0-3.86-1.056-3.822-3.47.06-2.592 1.87-4.673 4.632-4.673Zm-.712 6.26c1.256 0 1.715-1.794 1.715-2.85 0-.755-.24-1.494-1.068-1.494-1.239 0-1.668 1.9-1.668 2.88 0 .784.223 1.464 1.038 1.464m6.548-9.127-.428 2.158h2.847l.429-2.158H32.48ZM30.2 12.53h2.852l1.633-7.691h-2.868l-1.617 7.691Zm9.1.258a2.481 2.481 0 0 1-1.31-.27 2.433 2.433 0 0 1-.972-.908h-.047l-.857 3.892h-2.886l2.315-10.663h2.71l-.214 1.025c.283-.378.65-.69 1.072-.909a3.2 3.2 0 0 1 1.368-.357c1.715 0 2.723 1.448 2.693 3.33-.038 2.369-1.286 4.86-3.89 4.86h.018Zm-.112-6.012c-1.102 0-1.78 1.39-1.796 2.457 0 .743.265 1.57 1.17 1.57 1.18 0 1.664-1.536 1.677-2.562 0-.696-.206-1.465-1.05-1.465Zm16.49 4.543h.047l-.25 1.22h2.71l1.635-7.692h-2.848l-.909 4.297c-.184.891-.742 1.36-1.445 1.36-.703 0-.858-.65-.716-1.33l.922-4.327h-2.848l-1.008 4.75c-.428 2.068.55 3.182 2.188 3.182a2.959 2.959 0 0 0 1.46-.401 2.904 2.904 0 0 0 1.061-1.068v.009Zm15.296 4.22.429-2.156H37.583l-.428 2.157h33.818Z" fill="#fff"/><path d="M74.039 6.948a.216.216 0 0 1-.188-.145.208.208 0 0 1-.01-.083 2.645 2.645 0 0 0-.716-2.074 2.725 2.725 0 0 0-.932-.643 2.763 2.763 0 0 0-1.117-.212.216.216 0 0 1-.152-.062.21.21 0 0 1 .152-.36c.103.006.206.006.309 0a3.313 3.313 0 0 0 2.006-.958c.536-.54.863-1.246.927-1.997a.21.21 0 0 1 .068-.139.217.217 0 0 1 .146-.056.217.217 0 0 1 .188.146.208.208 0 0 1 .01.082 2.646 2.646 0 0 0 .715 2.073c.26.277.577.496.93.644.353.147.733.22 1.116.213.057 0 .112.022.152.062a.21.21 0 0 1 0 .298.217.217 0 0 1-.152.062 3.335 3.335 0 0 0-2.193.868 3.234 3.234 0 0 0-1.044 2.087.21.21 0 0 1-.069.139.217.217 0 0 1-.146.055Z" fill="#fff"/></svg>
